X: 30
T: Campbell's Favorite
T: March, G
C: Anne Campbell Brown
L: 1/16
M: C
K: G
|: B2A2| G4D4 E2D2B,2D2| G2F2G2B2 d4B2d2| e2c2e2g2 d2B2G2B2| A8 A4B2A2| 
G4D4 E2D2B,2D2| G2F2G2B2 d4B2d2| e2c2e2g2 d2B2c2A2| G8 G4:| 
|: g2a2| b6g2 d4g4| G2B2d2g2 b4g2b2| a6f2 d4f4| A2d2f2a2 c'4b2a2| 
b6g2 d4g4| G2B2d2g2 b4a2g2| e2c2e2g2 d2B2 (3G2A2B2| c2A2F2D2 G4:| 
D: Glenn Graham/Rodney MacDonald, Traditionally Rockin', TR1
